X:1
T:Title
%%score { 1 | 2 }
L:1/8
Q:1/4=112
M:4/4
K:G
V:1 treble nm="Grand Piano"
V:2 bass 
V:1
 [EG]2 [CE]2 [EG]2 [Ec]2 | [Fe]2 [Fd]2 [FA]2 z2 | B2 c2 d2 B2 | [^DA]4 [EG]4 | %4
w: Ella~Doughty * * *||||
 [EG]2 [CE]2 [EG]2 [Ec]2 | [Fe]2 [Fd]2 [FA]2 z2 | [Fd]2 [Fe]2 [Fd]2 [FA]2 | [=Fd]4 [FG]4 | %8
w: ||||
 [Ec]2 [EA]2 [EA]2 z2 | [=Fc]2 [FB]2 [FB]2 z2 | B2 d2 A2 B2 | [^DA]2 [EG]2 [EG]2 z2 | %12
w: ||||
 [Ec]2 [EA]2 [EA]2 z2 | [Fe]2 [Fd]2 [Fd]2 z2 | [FB]2 [FA]2 [FB]2 [Fc]2 | d2 G2 G2 z2 | %16
w: ||||
 [Ec]2 [EA]2 [EA]2 z2 | [=Fc]2 [FB]2 [FB]2 z2 | B2 d2 A2 B2 | [^DA]2 [EG]2 [EG]2 z2 | %20
w: ||||
 [Ee]2 [Ec]2 [Ec]2 z2 | d2 c2 A4 | G2 c2 c2 d2 | [Ec]6 z2 |] %24
w: ||||
V:2
 [C,C]2 [C,G,]2 [C,C]2 [C,C]2 | [D,C]2 [D,C]2 [D,C]2 z2 | [G,D=F]2 [G,CF]2 [G,B,F]2 [G,DF]2 | %3
 [C,F,C]4 [C,G,C]4 | [C,C]2 [C,G,]2 [C,C]2 [C,C]2 | [D,C]2 [D,C]2 [D,C]2 z2 | %6
 [D,C]2 [D,C]2 [D,C]2 [D,C]2 | [G,B,]4 [G,B,]4 | [C,G,]2 [C,G,]2 [C,G,]2 z2 | %9
 [D,G,]2 [D,G,]2 [D,G,]2 z2 | [G,D=F]2 [G,B,F]2 [G,CF]2 [G,DF]2 | [C,F,C]2 [C,G,C]2 [C,G,C]2 z2 | %12
 [C,G,]2 [C,G,]2 [C,G,]2 z2 | [D,C]2 [D,C]2 [D,C]2 z2 | [D,C]2 [D,C]2 [D,C]2 [D,D]2 | %15
 [G,B,=F]2 [G,B,F]2 [G,B,F]2 z2 | [C,G,]2 [C,G,]2 [C,G,]2 z2 | [D,G,]2 [D,G,]2 [D,G,]2 z2 | %18
 [G,D=F]2 [G,B,F]2 [G,CF]2 [G,DF]2 | [C,F,C]2 [C,G,C]2 [C,G,C]2 z2 | [C,_B,]2 [C,B,]2 [C,B,]2 z2 | %21
 [=F,A,=F]2 [F,A,F]2 [^F,C^D]4 | [G,CE]2 [G,CE]2 [G,D=F]2 [G,B,F]2 | [C,G,C]6 z2 |] %24

